;START_OF_HEADER
;HEADER_VERSION:0.1
;FLAVOR:Griffin
;GENERATOR.NAME:Cura_SteamEngine
;GENERATOR.VERSION:4.8.0
;GENERATOR.BUILD_DATE:2020-11-10
;TARGET_MACHINE.NAME:Ultimaker 3 Extended
;EXTRUDER_TRAIN.0.INITIAL_TEMPERATURE:205
;EXTRUDER_TRAIN.0.MATERIAL.VOLUME_USED:13125
;EXTRUDER_TRAIN.0.MATERIAL.GUID:506c9f0d-e3aa-4bd4-b2d2-23e2425b1aa9
;EXTRUDER_TRAIN.0.NOZZLE.DIAMETER:0.4
;EXTRUDER_TRAIN.0.NOZZLE.NAME:AA 0.4
;BUILD_PLATE.TYPE:glass
;BUILD_PLATE.INITIAL_TEMPERATURE:55
;PRINT.TIME:8775
;PRINT.GROUPS:1
;PRINT.SIZE.MIN.X:9
;PRINT.SIZE.MIN.Y:6
;PRINT.SIZE.MIN.Z:0.27
;PRINT.SIZE.MAX.X:164.606
;PRINT.SIZE.MAX.Y:134.246
;PRINT.SIZE.MAX.Z:9.72
;END_OF_HEADER
;POSTPROCESSED
;LINEARADVANCEPROCESSED
;Generated with Cura_SteamEngine 4.8.0
T0
M82 ;absolute extrusion mode

G92 E0
M109 S205
G0 F15000 X9 Y6 Z2
G280
G1 F1500 E-6.5
;LAYER_COUNT:64
M900 K0.000000 T0 ;added by LinearAdvanceSettingPlugin
;LAYER:0
M107
M204 S625
M205 X6 Y6
G0 F3750 X69.161 Y81.341 Z0.27
M204 S500
M205 X5 Y5
;TYPE:SKIRT
G1 F1500 E0
G1 F1200 X69.598 Y81.085 E0.009
G1 X70.069 Y80.901 E0.01799
G1 X70.564 Y80.794 E0.02699
G1 X71.217 Y80.757 E0.03862
G1 X71.317 Y80.755 E0.0404
G1 X160.747 Y80.755 E1.6301
G1 X161.443 Y80.765 E1.64248
G1 X161.947 Y80.813 E1.65148
G1 X162.438 Y80.938 E1.66048
G1 X162.902 Y81.14 E1.66948
G1 X163.329 Y81.412 E1.67848
G1 X163.708 Y81.748 E1.68748
G1 X164.03 Y82.139 E1.69649
G1 X164.286 Y82.576 E1.70549
G1 X164.47 Y83.047 E1.71448
G1 X164.578 Y83.542 E1.72348
G1 X164.606 Y84.048 E1.73249
G1 X164.525 Y84.694 E1.74407
G1 X164.258 Y85.858 E1.76529
G1 X163.67 Y88.6 E1.81514
G1 X163.171 Y91.292 E1.86381
G1 X162.754 Y93.983 E1.91222
G1 X162.414 Y96.664 E1.96026
G1 X162.143 Y99.432 E2.0097
G1 X161.953 Y102.15 E2.05813
G1 X161.841 Y104.863 E2.1064
G1 X161.805 Y107.616 E2.15534
G1 X161.846 Y110.367 E2.20424
G1 X161.965 Y113.085 E2.25261
G1 X162.162 Y115.827 E2.30147
G1 X162.434 Y118.532 E2.3498
G1 X162.787 Y121.263 E2.39875
G1 X163.217 Y123.986 E2.44775
G1 X163.713 Y126.642 E2.49578
G1 X164.329 Y129.478 E2.54737
G1 X164.519 Y130.299 E2.56235
G1 X164.594 Y130.8 E2.57136
G1 X164.589 Y131.306 E2.58035
G1 X164.505 Y131.805 E2.58935
G1 X164.343 Y132.285 E2.59835
G1 X164.108 Y132.734 E2.60736
G1 X163.805 Y133.14 E2.61637
G1 X163.442 Y133.493 E2.62537
G1 X163.029 Y133.784 E2.63435
G1 X162.574 Y134.007 E2.64335
G1 X162.09 Y134.156 E2.65236
G1 X161.443 Y134.233 E2.66394
G1 X160.644 Y134.245 E2.67814
G1 X71.645 Y134.246 E4.26019
G1 X70.947 Y134.236 E4.2726
G1 X70.443 Y134.189 E4.28159
G1 X69.952 Y134.063 E4.2906
G1 X69.488 Y133.861 E4.2996
G1 X69.061 Y133.589 E4.3086
G1 X68.682 Y133.254 E4.31759
G1 X68.36 Y132.862 E4.32661
G1 X68.104 Y132.425 E4.33561
G1 X67.92 Y131.954 E4.3446
G1 X67.812 Y131.459 E4.35361
G1 X67.775 Y130.771 E4.36585
G1 X67.775 Y84.591 E5.18675
G1 X67.785 Y83.927 E5.19855
G1 X67.833 Y83.423 E5.20755
G1 X67.959 Y82.932 E5.21656
G1 X68.161 Y82.468 E5.22556
G1 X68.433 Y82.041 E5.23456
G1 X68.769 Y81.662 E5.24356
G1 X69.161 Y81.341 E5.25257
M204 S625
M205 X6 Y6
G1 F1500 E-1.24743
G0 F3750 X161.563 Y83.182
G0 X162.074 Y84.402
G0 X160.344 Y86.248
G0 X73.741 Y86.721
M204 S500
M205 X5 Y5
;TYPE:SUPPORT
G1 F1500 E5.25257
G1 F1200 X159.254 Y86.72 E6.77265
G1 X159.113 Y86.889 E6.77656
G1 X158.436 Y87.759 E6.79615
G1 X157.839 Y88.58 E6.8142
G1 X157.144 Y89.618 E6.8364
G1 X156.61 Y90.468 E6.85425
G1 X155.996 Y91.523 E6.87595
G1 X155.449 Y92.558 E6.89676
G1 X155.004 Y93.46 E6.91464
G1 X154.511 Y94.559 E6.93605
G1 X154.071 Y95.633 E6.95668
G1 X153.726 Y96.569 E6.97441
G1 X153.343 Y97.73 E6.99614
G1 X153.016 Y98.859 E7.01704
G1 X152.734 Y99.978 E7.03755
G1 X152.473 Y101.175 E7.05933
G1 X152.278 Y102.281 E7.07929
G1 X152.124 Y103.361 E7.09868
G1 X151.988 Y104.638 E7.12151
G1 X151.906 Y105.754 E7.1414
G1 X151.865 Y106.976 E7.16314
G1 X151.865 Y107.998 E7.1813
G1 X151.916 Y109.375 E7.2058
G1 X151.982 Y110.367 E7.22347
G1 X152.117 Y111.61 E7.2457
G1 X152.267 Y112.657 E7.2645
G1 X152.495 Y113.934 E7.28756
G1 X152.711 Y114.943 E7.3059
G1 X153.025 Y116.186 E7.32869
G1 X153.271 Y117.033 E7.34437
G1 X153.898 Y118.965 E7.38047
G1 X154.05 Y119.297 E7.38697
G1 X154.112 Y119.467 E7.39018
G1 X154.522 Y120.466 E7.40938
G1 X155.003 Y121.538 E7.43026
G1 X155.462 Y122.475 E7.44881
G1 X155.998 Y123.469 E7.46889
G1 X156.572 Y124.466 E7.48934
G1 X157.182 Y125.447 E7.50987
G1 X157.803 Y126.369 E7.52963
G1 X158.544 Y127.379 E7.5519
G1 X159.167 Y128.18 E7.56994
G1 X159.251 Y128.28 E7.57226
G1 X73.74 Y128.28 E9.0923
G1 X73.741 Y86.721 E9.83105
M204 S625
M205 X6 Y6
G0 F3750 X74.656 Y86.93
M204 S500
M205 X5 Y5
G1 F1200 X74.656 Y128.07 E10.56235
M204 S625
M205 X6 Y6
G0 F3750 X73.95 Y125.982
M204 S500
M205 X5 Y5
G1 F1200 X157.29 Y125.982 E12.0438
M204 S625
M205 X6 Y6
G0 F3750 X156.311 Y124.434
M204 S500
M205 X5 Y5
G1 F1200 X156.311 Y128.07 E12.10844
M204 S625
M205 X6 Y6
G0 F3750 X158.644 Y128.07
M204 S500
M205 X5 Y5
G1 F1200 X158.644 Y127.851 E12.11233
M204 S625
M205 X6 Y6
G0 F3750 X153.978 Y128.07
M204 S500
M205 X5 Y5
G1 F1200 X153.978 Y119.695 E12.2612
M204 S625
M205 X6 Y6
G0 F3750 X153.684 Y118.983
M204 S500
M205 X5 Y5
G1 F1200 X73.95 Y118.983 E13.67855
M204 S625
M205 X6 Y6
G0 F3750 X73.95 Y121.316
M204 S500
M205 X5 Y5
G1 F1200 X154.674 Y121.316 E15.1135
M204 S625
M205 X6 Y6
G0 F3750 X155.861 Y123.649
M204 S500
M205 X5 Y5
G1 F1200 X73.95 Y123.649 E16.56955
M204 S625
M205 X6 Y6
G0 F3750 X76.989 Y128.07
M204 S500
M205 X5 Y5
G1 F1200 X76.989 Y86.93 E17.30085
M204 S625
M205 X6 Y6
G0 F3750 X79.322 Y86.93
M204 S500
M205 X5 Y5
G1 F1200 X79.322 Y128.07 E18.03216
M204 S625
M205 X6 Y6
G0 F3750 X81.655 Y128.07
M204 S500
M205 X5 Y5
G1 F1200 X81.655 Y86.93 E18.76346
M204 S625
M205 X6 Y6
G0 F3750 X83.988 Y86.93
M204 S500
M205 X5 Y5
G1 F1200 X83.988 Y128.07 E19.49476
M204 S625
M205 X6 Y6
G0 F3750 X86.321 Y128.07
M204 S500
M205 X5 Y5
G1 F1200 X86.321 Y86.93 E20.22607
M204 S625
M205 X6 Y6
G0 F3750 X88.654 Y86.93
M204 S500
M205 X5 Y5
G1 F1200 X88.654 Y128.07 E20.95737
M204 S625
M205 X6 Y6
G0 F3750 X90.987 Y128.07
M204 S500
M205 X5 Y5
G1 F1200 X90.987 Y86.93 E21.68868
M204 S625
M205 X6 Y6
G0 F3750 X93.32 Y86.93
M204 S500
M205 X5 Y5
G1 F1200 X93.32 Y128.07 E22.41998
M204 S625
M205 X6 Y6
G0 F3750 X95.653 Y128.07
M204 S500
M205 X5 Y5
G1 F1200 X95.653 Y86.93 E23.15128
M204 S625
M205 X6 Y6
G0 F3750 X97.986 Y86.93
M204 S500
M205 X5 Y5
G1 F1200 X97.986 Y128.07 E23.88259
M204 S625
M205 X6 Y6
G0 F3750 X100.319 Y128.07
M204 S500
M205 X5 Y5
G1 F1200 X100.319 Y86.93 E24.61389
M204 S625
M205 X6 Y6
G0 F3750 X102.652 Y86.93
M204 S500
M205 X5 Y5
G1 F1200 X102.652 Y128.07 E25.34519
M204 S625
M205 X6 Y6
G0 F3750 X104.985 Y128.07
M204 S500
M205 X5 Y5
G1 F1200 X104.985 Y86.93 E26.0765
M204 S625
M205 X6 Y6
G0 F3750 X107.318 Y86.93
M204 S500
M205 X5 Y5
G1 F1200 X107.318 Y128.07 E26.8078
M204 S625
M205 X6 Y6
G0 F3750 X109.651 Y128.07
M204 S500
M205 X5 Y5
G1 F1200 X109.651 Y86.93 E27.5391
M204 S625
M205 X6 Y6
G0 F3750 X111.984 Y86.93
M204 S500
M205 X5 Y5
G1 F1200 X111.984 Y128.07 E28.27041
M204 S625
M205 X6 Y6
G0 F3750 X114.317 Y128.07
M204 S500
M205 X5 Y5
G1 F1200 X114.317 Y86.93 E29.00171
M204 S625
M205 X6 Y6
G0 F3750 X116.65 Y86.93
M204 S500
M205 X5 Y5
G1 F1200 X116.65 Y128.07 E29.73302
M204 S625
M205 X6 Y6
G0 F3750 X118.983 Y128.07
M204 S500
M205 X5 Y5
G1 F1200 X118.983 Y86.93 E30.46432
M204 S625
M205 X6 Y6
G0 F3750 X121.316 Y86.93
M204 S500
M205 X5 Y5
G1 F1200 X121.316 Y128.07 E31.19562
M204 S625
M205 X6 Y6
G0 F3750 X123.649 Y128.07
M204 S500
M205 X5 Y5
G1 F1200 X123.649 Y86.93 E31.92693
M204 S625
M205 X6 Y6
G0 F3750 X125.982 Y86.93
M204 S500
M205 X5 Y5
G1 F1200 X125.982 Y128.07 E32.65823
M204 S625
M205 X6 Y6
G0 F3750 X128.315 Y128.07
M204 S500
M205 X5 Y5
G1 F1200 X128.315 Y86.93 E33.38953
M204 S625
M205 X6 Y6
G0 F3750 X130.648 Y86.93
M204 S500
M205 X5 Y5
G1 F1200 X130.648 Y128.07 E34.12084
M204 S625
M205 X6 Y6
G0 F3750 X132.981 Y128.07
M204 S500
M205 X5 Y5
G1 F1200 X132.981 Y86.93 E34.85214
M204 S625
M205 X6 Y6
G0 F3750 X135.314 Y86.93
M204 S500
M205 X5 Y5
G1 F1200 X135.314 Y128.07 E35.58344
M204 S625
M205 X6 Y6
G0 F3750 X137.647 Y128.07
M204 S500
M205 X5 Y5
G1 F1200 X137.647 Y86.93 E36.31475
M204 S625
M205 X6 Y6
G0 F3750 X139.98 Y86.93
M204 S500
M205 X5 Y5
G1 F1200 X139.98 Y128.07 E37.04605
M204 S625
M205 X6 Y6
G0 F3750 X142.313 Y128.07
M204 S500
M205 X5 Y5
G1 F1200 X142.313 Y86.93 E37.77736
M204 S625
M205 X6 Y6
G0 F3750 X144.646 Y86.93
M204 S500
M205 X5 Y5
G1 F1200 X144.646 Y128.07 E38.50866
M204 S625
M205 X6 Y6
G0 F3750 X146.979 Y128.07
M204 S500
M205 X5 Y5
G1 F1200 X146.979 Y86.93 E39.23996
M204 S625
M205 X6 Y6
G0 F3750 X149.312 Y86.93
M204 S500
M205 X5 Y5
G1 F1200 X149.312 Y128.07 E39.97127
M204 S625
M205 X6 Y6
G0 F3750 X151.645 Y128.07
M204 S500
M205 X5 Y5
G1 F1200 X151.645 Y86.93 E40.70257
M204 S625
M205 X6 Y6
G0 F3750 X153.978 Y86.93
M204 S500
M205 X5 Y5
G1 F1200 X153.978 Y95.306 E40.85146
M204 S625
M205 X6 Y6
G0 F3750 X153.839 Y95.653
M204 S500
M205 X5 Y5
G1 F1200 X73.951 Y95.653 E42.27155
M204 S625
M205 X6 Y6
G0 F3750 X73.951 Y93.32
M204 S500
M205 X5 Y5
G1 F1200 X154.838 Y93.32 E43.70939
M204 S625
M205 X6 Y6
G0 F3750 X156.063 Y90.987
M204 S500
M205 X5 Y5
G1 F1200 X73.951 Y90.987 E45.16902
M204 S625
M205 X6 Y6
G0 F3750 X73.951 Y88.654
M204 S500
M205 X5 Y5
G1 F1200 X157.536 Y88.654 E46.65482
M204 S625
M205 X6 Y6
G0 F3750 X158.644 Y87.15
M204 S500
M205 X5 Y5
G1 F1200 X158.644 Y86.93 E46.65873
M204 S625
M205 X6 Y6
G0 F3750 X156.311 Y86.93
M204 S500
M205 X5 Y5
G1 F1200 X156.311 Y90.564 E46.72333
M204 S625
M205 X6 Y6
G0 F3750 X153.049 Y97.986
M204 S500
M205 X5 Y5
G1 F1200 X73.951 Y97.986 E48.12937
M204 S625
M205 X6 Y6
G0 F3750 X73.951 Y100.319
M204 S500
M205 X5 Y5
G1 F1200 X152.444 Y100.319 E49.52466
M204 S625
M205 X6 Y6
G0 F3750 X152.013 Y102.652
M204 S500
M205 X5 Y5
G1 F1200 X73.951 Y102.652 E50.91229
M204 S625
M205 X6 Y6
G0 F3750 X73.951 Y104.985
M204 S500
M205 X5 Y5
G1 F1200 X151.751 Y104.985 E52.29526
M204 S625
M205 X6 Y6
G0 F3750 X151.655 Y107.318
M204 S500
M205 X5 Y5
G1 F1200 X73.951 Y107.318 E53.67653
M204 S625
M205 X6 Y6
G0 F3750 X73.951 Y109.651
M204 S500
M205 X5 Y5
G1 F1200 X151.724 Y109.651 E55.05902
M204 S625
M205 X6 Y6
G0 F3750 X151.959 Y111.984
M204 S500
M205 X5 Y5
G1 F1200 X73.951 Y111.984 E56.44569
M204 S625
M205 X6 Y6
G0 F3750 X73.951 Y114.317
M204 S500
M205 X5 Y5
G1 F1200 X152.363 Y114.317 E57.83954
M204 S625
M205 X6 Y6
G0 F3750 X152.942 Y116.65
M204 S500
M205 X5 Y5
G1 F1200 X73.951 Y116.65 E59.24368
M204 S625
M205 X6 Y6
G1 F1500 E52.74368
;MESH:LockCoverLongThin.stl
G0 F3750 X72.186 Y116.648
G0 X72.055 Y129.786
M204 S500
M205 X5 Y5
;TYPE:WALL-INNER
G1 F1500 E59.24368
G1 F1200 X72.055 Y129.965 E59.2464
G1 X72.234 Y129.965 E59.24817
G1 X159.567 Y129.965 E60.57882
G1 X159.706 Y130.12 E60.58199
G1 X159.902 Y130.339 E60.58647
G1 X159.992 Y130.435 E60.58848
G1 X159.903 Y130.435 E60.58849
G1 X159.609 Y130.435 E60.59148
G1 X71.763 Y130.436 E61.92995
G1 X71.584 Y130.436 E61.93267
G1 X71.584 Y130.257 E61.93444
G1 X71.585 Y84.565 E62.63063
G1 X159.607 Y84.565 E63.97178
G1 X159.903 Y84.565 E63.97629
G1 X159.992 Y84.565 E63.97764
G1 X159.903 Y84.659 E63.97828
G1 X159.706 Y84.879 E63.98126
G1 X159.566 Y85.035 E63.98446
G1 X72.056 Y85.036 E65.31781
G1 X72.055 Y129.786 E65.99964
M204 S625
M205 X6 Y6
G0 F3750 X72.445 Y129.575
M204 S500
M205 X5 Y5
;TYPE:WALL-OUTER
G1 F1200 X72.655 Y129.575 E66.00338
G1 X159.741 Y129.575 E67.55142
G1 X160.19 Y130.076 E67.56337
G1 X160.402 Y130.303 E67.5689
G1 X160.544 Y130.452 E67.57255
G1 X160.782 Y130.704 E67.57872
G1 X160.902 Y130.825 E67.58175
G1 X160.783 Y130.825 E67.58183
G1 X160.436 Y130.825 E67.58599
G1 X71.404 Y130.826 E69.16862
G1 X71.194 Y130.826 E69.17235
G1 X71.194 Y130.616 E69.17477
G1 X71.195 Y84.175 E70.0003
G1 X160.436 Y84.175 E71.58665
G1 X160.782 Y84.175 E71.5928
G1 X160.902 Y84.175 E71.59493
G1 X160.782 Y84.296 E71.59592
G1 X160.545 Y84.547 E71.60005
G1 X160.19 Y84.923 E71.60924
G1 X159.741 Y85.425 E71.62121
G1 X72.446 Y85.426 E73.17296
G1 X72.445 Y129.365 E73.95402
G1 X72.445 Y129.575 E73.95644
M204 S625
M205 X6 Y6
G0 F3750 X72.645 Y129.575
G0 X72.645 Y130.037
G0 X72.783 Y130.2
M204 S500
M205 X5 Y5
;TYPE:SKIN
G1 F1200 X73.03 Y130.2 E73.9583
G1 X159.403 Y130.2 E74.60993
M204 S625
M205 X6 Y6
G0 F3750 X159.492 Y130.289
G0 X72.177 Y129.843
G0 X72.178 Y85.158
G0 X159.382 Y84.888
G0 X159.293 Y84.799
M204 S500
M205 X5 Y5
G1 F1200 X159.045 Y84.799 E74.61181
G1 X71.93 Y84.799 E75.27223
G1 X71.819 Y84.936 E75.27357
G1 X71.819 Y129.978 E75.61504
G1 X72.04 Y130.2 E75.61741
G1 X71.805 Y130.212 E75.61919
M104 S200
M204 S625
M205 X6 Y6
G0 F3750 X71.729 Y130.136
G0 X72.178 Y85.158
G0 X159.451 Y84.71
M204 S500
M205 X5 Y5
G1 F1200 X159.562 Y84.82 E75.62035
M204 S625
M205 X6 Y6
G0 F3750 X159.515 Y84.777
G1 F1500 E69.12035
;MESH:NONMESH
G0 F600 X159.515 Y84.777 Z0.42
G0 F3750 X158.644 Y85.185
G0 X158.645 Y86.425
G0 X158.644 Y128.264
;TIME_ELAPSED:245.917636
;LAYER:1
M106 S85
M204 S1250
M205 X10 Y10
;TYPE:SUPPORT
G1 F1500 E75.62035
G1 X159.283 Y128.264 E75.62561
G1 X159.195 Y128.159 E75.62674
G1 X158.644 Y127.452 E75.63411
G1 X158.644 Y128.264 E75.6408
G1 X156.311 Y128.264 E75.66
G1 X156.311 Y123.944 E75.69555
G1 X156.024 Y123.445 E75.70029
G1 X155.501 Y122.475 E75.70936
G1 X155.043 Y121.538 E75.71794
G1 X154.541 Y120.422 E75.72801
G1 X154.15 Y119.467 E75.7365
G1 X154.084 Y119.286 E75.73809
G1 X153.978 Y119.056 E75.74017
G1 X153.978 Y128.264 E75.81595
G1 X151.645 Y128.264 E75.83515
G1 X151.645 Y86.736 E76.17691
G1 X149.312 Y86.736 E76.19611
G1 X149.312 Y128.264 E76.53787
G1 X146.979 Y128.264 E76.55707
G1 X146.979 Y86.736 E76.89883
G1 X144.646 Y86.736 E76.91803
G1 X144.646 Y128.264 E77.25979
G1 X142.313 Y128.264 E77.27899
G1 X142.313 Y86.736 E77.62075
G1 X139.98 Y86.736 E77.63995
G1 X139.98 Y128.264 E77.98171
G1 X137.647 Y128.264 E78.00091
G1 X137.647 Y86.736 E78.34266
G1 X135.314 Y86.736 E78.36186
G1 X135.314 Y128.264 E78.70362
G1 X132.981 Y128.264 E78.72282
G1 X132.981 Y86.736 E79.06458
G1 X130.648 Y86.736 E79.08378
G1 X130.648 Y128.264 E79.42554
G1 X128.315 Y128.264 E79.44474
G1 X128.315 Y86.736 E79.7865
G1 X125.982 Y86.736 E79.8057
G1 X125.982 Y128.264 E80.14746
G1 X123.649 Y128.264 E80.16666
G1 X123.649 Y86.736 E80.50842
G1 X121.316 Y86.736 E80.52762
G1 X121.316 Y128.264 E80.86938
G1 X118.983 Y128.264 E80.88858
G1 X118.983 Y86.736 E81.23034
G1 X116.65 Y86.736 E81.24954
G1 X116.65 Y128.264 E81.5913
G1 X114.317 Y128.264 E81.6105
G1 X114.317 Y86.736 E81.95226
G1 X111.984 Y86.736 E81.97146
G1 X111.984 Y128.264 E82.31322
G1 X109.651 Y128.264 E82.33242
G1 X109.651 Y86.736 E82.67418
G1 X107.318 Y86.736 E82.69338
G1 X107.318 Y128.264 E83.03514
G1 X104.985 Y128.264 E83.05434
G1 X104.985 Y86.736 E83.39609
G1 X102.652 Y86.736 E83.41529
G1 X102.652 Y128.264 E83.75705
G1 X100.319 Y128.264 E83.77625
G1 X100.319 Y86.736 E84.11801
G1 X97.986 Y86.736 E84.13721
G1 X97.986 Y128.264 E84.47897
G1 X95.653 Y128.264 E84.49817
G1 X95.653 Y86.736 E84.83993
G1 X93.32 Y86.736 E84.85913
G1 X93.32 Y128.264 E85.20089
G1 X90.987 Y128.264 E85.22009
G1 X90.987 Y86.736 E85.56185
G1 X88.654 Y86.736 E85.58105
G1 X88.654 Y128.264 E85.92281
G1 X86.321 Y128.264 E85.94201
G1 X86.321 Y86.736 E86.28377
G1 X83.988 Y86.736 E86.30297
G1 X83.988 Y128.264 E86.64473
G1 X81.655 Y128.264 E86.66393
G1 X81.655 Y86.736 E87.00569
G1 X79.322 Y86.736 E87.02489
G1 X79.322 Y128.264 E87.36665
G1 X76.989 Y128.264 E87.38585
G1 X76.989 Y86.736 E87.72761
G1 X74.656 Y86.736 E87.74681
G1 X74.656 Y128.264 E88.08857
G1 X73.756 Y128.264 E88.09597
G1 X73.757 Y86.737 E88.43772
G1 X74.656 Y86.736 E88.44512
M204 S2812
M205 X18 Y18
G1 F1500 E81.94512
G0 F9375 X74.657 Y86.835
G0 X158.644 Y87.55
M204 S1250
M205 X10 Y10
G1 F1500 E88.44512
G1 X158.466 Y87.778 E88.4475
G1 X157.86 Y88.612 E88.45599
G1 X157.168 Y89.643 E88.46621
G1 X156.637 Y90.491 E88.47444
G1 X156.311 Y91.052 E88.47978
G1 X156.311 Y86.736 E88.5153
G1 X153.978 Y86.736 E88.5345
G1 X153.978 Y95.989 E88.61065
G1 X153.754 Y96.596 E88.61597
G1 X153.375 Y97.747 E88.62594
G1 X153.053 Y98.855 E88.63544
G1 X152.764 Y100 E88.64516
G1 X152.511 Y101.163 E88.65495
G1 X152.31 Y102.299 E88.66445
G1 X152.157 Y103.368 E88.67333
G1 X152.022 Y104.641 E88.68387
